assets/img/Область Контакты/Vector.svg

<svg width="18" height="18" viewBox="0 0 18 18" fill="none" xmlns="http://www.w3.org/2000/svg">
<path d="M16.1291 17.4858L16.1477 17.4561L17.9995 13.6972L12.5901 9.64011L10.1011 11.5067C9.16251 11.4508 8.27693 11.0528 7.61204 10.3879C6.94716 9.72299 6.54912 8.83741 6.49328 7.89877L8.35985 5.4099L4.30284 0.000487683L0.575384 1.83693L0.543913 1.85239L0.514223 1.87101C0.356314 1.96901 0.226116 2.1058 0.136022 2.26835C0.0459288 2.4309 -0.00105869 2.6138 -0.000473145 2.79965L-0.000473187 3.76957C-0.000473269 5.63841 0.36762 7.48894 1.08279 9.21551C1.79797 10.9421 2.84621 12.5109 4.16768 13.8324C5.48914 15.1538 7.05795 16.2021 8.78453 16.9172C10.5111 17.6324 12.3616 18.0005 14.2305 18.0005L15.2004 18.0005C15.3863 18.0011 15.5692 17.9541 15.7317 17.864C15.8943 17.7739 16.0311 17.6437 16.1291 17.4858ZM14.2305 16.6114C7.14944 16.6114 1.3886 10.8506 1.3886 3.76957L1.3886 2.98474L3.88299 1.75602L6.62359 5.41016L5.09782 7.44459L5.09782 7.67609C5.09937 9.06174 5.65051 10.3902 6.63031 11.37C7.61012 12.3498 8.93857 12.9009 10.3242 12.9025L10.5557 12.9025L12.5901 11.3767L16.244 14.117L15.0151 16.6114L14.2305 16.6114Z" fill="#333333"/>
</svg>

<svg xmlns="http://www.w3.org/2000/svg" width="18" height="18" fill="none"><path fill="#333" d="m16.1 17.5 1.9-3.8-5.4-4-2.5 1.8A3.8 3.8 0 0 1 6.5 8l1.9-2.5L4.3 0 .6 1.8a1 1 0 0 0-.6 1v1A14.2 14.2 0 0 0 14.2 18h1a1 1 0 0 0 1-.5Zm-1.9-.9c-7 0-12.8-5.7-12.8-12.8V3l2.5-1.2 2.7 3.6-1.5 2v.3a5.2 5.2 0 0 0 5.2 5.2h.3l2-1.5 3.6 2.7-1.2 2.5h-.8Z"/></svg>
